images/rules-img-2.svg

<svg width="90" height="90" fill="none" xmlns="http://www.w3.org/2000/svg"><path fill-rule="evenodd" clip-rule="evenodd" d="M4 57V4h42v28h8v43H13V57H4ZM6 6h38v49H6V6Zm9 51v16h37V34h-6v23H15Zm10-21h13v13H25V36Zm2 2v9h9v-9h-9Zm11-27H11v2h27v-2Zm-27 6h27v2H11v-2Zm11 6H11v2h11v-2Z" fill="#fff"/></svg>

<svg width="90" height="90" viewBox="0 0 90 90" fill="none" xmlns="http://www.w3.org/2000/svg">
<path fill-rule="evenodd" clip-rule="evenodd" d="M4 57V4H46V32H54V75H13V57H4ZM6 6H44V55H6V6ZM15 57V73H52V34H46V57H15ZM25 36H38V49H25V36ZM27 38V47H36V38H27ZM38 11H11V13H38V11ZM11 17H38V19H11V17ZM22 23H11V25H22V23Z" fill="white"/>
</svg>
